X:1
T:Flöte Sonate D-Dur, HWV 378 für Querflöte und Basso continuo
T:Querflöte Sonate D-Dur, HWV 378
T:für Querflöte und Basso continuo Transcribed for Rec, Bsn, Hch in F-Dur from IMSLP#400416 PDF File
T: George Frideric Handel (1685 — 1759)
T:Public Domain - Non-PD US
T:Public Domain - Non-PD US
T:Public Domain - Non-PD US
T:Public Domain - Non-PD US
T:Public Domain - Non-PD US
C:George Frideric Handel (1685 — 1759)
Z:Public Domain - Non-PD US
%%score [ 1 2 ] { ( 3 4 6 7 ) | 5 }
L:1/8
Q:1/2=30
M:2/2
K:F
V:1 treble nm="Alto Recorder" snm="A. Rec."
V:2 bass nm="Fagotto" snm="Bsn."
V:3 treble nm="Harpsichord" snm="Hch."
V:4 treble 
V:6 treble 
V:7 treble 
V:5 bass 
V:1
"^Adagio" z FAc g4- | gcfa d'>c' b/a/g/f/ | e/d/c z c' d'/>e/f/>c/ b2 | %3
 a2 z/ a/b/c'/ g/a/b/c'/ f/a/b/c'/ | e/d/c z g A2 =b2 | c2 d'2 ea/g/ g2 | %6
!f! z c'/f/ f2- f/g/e/f/ d>=b | c'2- c'/f/g/a/ =Bc/f/ eTd/c/ | c b2 a/b/ ^f>_e' Td'>c' | %9
 bg d>e f/g/a/b/ g>d' | ^c'ad=c' =bgc_b | ad'/c'/ b/a/g/f/ ec z f' | a z d'>f e2- e/b/a/g/ | %13
 ag/f/ Te>f f2 z f | eAdg c'c f2- | fd'/d/ Te>f f4 |][M:3/8]"^2. Allegro"[Q:3/8=40] f/c/f/a/g/b/ | %17
 a2 z | f/c/f/a/g/b/ | a/f/a/c'/b/d'/ | c'/g/a/e/f/g/ | e/g/c'/e/f/c/ | d/B/d/f/b/d/ | %23
 e/c/d/e/f/e/ | f/c/d/e/f/e/ | f/e/f/e/f/c/ | g/c/g/f/g/a/ | b>c'a/g/ | a/f/ Te>f | f3 | z3 | %31
 z/ c'/b/a/g/f/ | e/g/c'/g/a/e/ | f/A/=B/a/g/f/ | e/d/c/d/e/f/ | g3- | g3- | g3- | g3- | %39
 gf/e/d/c/ | f3- | f>=bc'/e/ | f/g/ eTd/c/ | c3 | z3 :: c'/g/a/e/f/g/ | c2 z | c'/g/a/e/f/g/ | %48
 c2 a | b/a/g/b/a/g/ | ^f>d'c'/d'/ | b/d'/a/d'/g/d'/ | ^f/d'/g/d'/a/d'/ | b/d'/a/d'/g/d'/ | ^fdg | %55
 g3- | g3- | g3- | gg>^f | g/a/ T^f>g | g/a/b/g/a/b/ | e/f/g/e/f/g/ | ^c/d/e/c/d/e/ | Aa>a | a3- | %65
 a>gf/e/ | f/d/ T^c>d | d/c'/c'/=b/c'/d'/ | e>=bc'/b/ | a/=b/ T^g>a | a/b/c'/a/b/c'/ | d>c'b/a/ | %72
 b/a/b/g/a/b/ | c>ba/g/ | a/g/b/a/g/f/ | e/d/ c c'- | c'3- | c'3- | c'3- | c'b/a/g/f/ | b3- | %81
 b/d'/c'/g/a/e/ | f/d/ Te>f |1 f3 | z3 :|2 f3 |][M:2/2]"^3. Adagio"[Q:1/2=60] a4 z ac'=b | %87
 ^g3 =b (bd')(d'f) | f2 z/ f/e/d/ c'>ae>c | b2- b>a g/f/e/d/ ^c/b/a/g/ | ^f3 f fa/f/ df | %91
 g3 b b/a/g g/=f/_e | _e3 g gf d2 | d3 =e/f/ d2 b2- | b2 a2 z2 Td>^c | ^c8 |] %96
[M:12/8]"^4. Allegro"[Q:3/8=120] faf cAc faf cAc | gbg ece ac'a fdf | bd'b geg ac'a fdf | %99
 gbg egc' agf z c'g | afa gcg afa gcg | fdc =Bgf edc a=ba | z3 gag z3 fgf | =bgb c'gc' abc' gc'b | %104
 c'gc' geg ece cGc | c12 :: geg dgf edc z3 | c'ac' gc'b agf z z a | bfb c'fc' d'3- d'c'b | %109
 ac'b abg ^fed g2 a | bag dg^f g3- gab | ^c2 b abg fed z z d' | ^g2 d' e2 d' c'=ba z z c' | %113
 ^fc'c' dc'c' bag z z b | aba gaf edc z3 | faf cAc faf cAc | gbg ece ac'a fdf | bd'b geg ac'a fdf | %118
 gbg egc' ac'a gc'g | fc'f ec'e dc'd cc'c | def cfe f6 | f6- f3- f2 d' | c'ba gce fcf afa | %123
 c'ac' f'c'a fcA FAc | f12 :| %125
V:2
 F,4- F,E,/D,/ E,C, | A,3 F, B,CDB, | CB,A,F, B,A,G,C | FF,/G,/ A,F, E,2 D,2 | %4
 C,C,/D,/ E,C, F,DG,E | A,F=B,G C2 z B, | A,2 z D G,CGG, | A,G,/F,/ E,F, G,A,/F,/ G,G,, | %8
 C,2 ^C,2 =C,B,,C,D, | G,G,/A,/ B,G, DC B,2 | A,2 ^F,>F, G,2 E,>E, | =F,A,DB, CA, D2 | %12
 C z B,>A, G,A,/B,/ C,E, | F,B,CC, F,G,A,B, | C2 B,2 A,2 z D | B,=B,CC, F,4 |][M:3/8] F,2 z | %17
 FA,C | F,2 z | FF,G, | A,2 B, | CB,A, | B,A,G, | CB,A, | DCB, | A,G,F, | B,A,G, | DEF | B,CC, | %29
 F,/F/E/D/C/B,/ | A,/D/C/B,/A,/G,/ | F,A,B, | CEC | DG,=B, | C=B,A, | G,z/G/F/G/ | E/G/D/G/C/G/ | %37
 =B,/G/D/G/B,/G/ | G,/G/D/G/=B,/D/ | G3- | GF/E/D/C/ | =B,G,A, | F,G,G,, | C,/C/=B,/C/G,/C/ | %44
 E,/G,/C,/E,/D,/C,/ :: C2 z | CG,E, | C,2 z | ^F,D,F, | G,=F,_E, | D,^F,D, | G,=F,_E, | D,=E,^F, | %53
 G,=F,_E, | D, z/ G/^F/G/ | _E/G/D/G/C/G/ | B,/G/A,/G/G,/G/ | _E/G/D/G/C/G/ | B,/G/A,/G/G, | CDD, | %60
 G,2 z | G,2 z | G,2 z | G,/B,/A,/G,/F,/E,/ | F,/A,/E,/A,/D,/A,/ | ^C,A,D | G,A,A,, | D,2 D | %68
 D^G,A, | DEE, | A,2 G, | ^F,D,F, | G,2 =F, | E,C,E, | F,D,B,, | C, z/ C/B,/C/ | A,/C/G,/C/F,/C/ | %77
 E,/C/G,/C/E,/C/ | C,/C/G,/C/E,/G,/ | C,3 | C,B,/A,/G,/F,/ | E,C,F, | B,CC, |1 F,/F/E/F/C/F/ | %84
 A,/F/F,/A,/G,/F,/ :|2 F,3 |][M:2/2] ^D,8 | =D,8 | ^G,4 A,4 | ^C,8 | =C,8 | B,,8 | G,6 ^G,2 | %93
 A,4 D,4 | C,4 B,,4 | A,,8 |][M:12/8] F3 E3 D3 A,3 | B,3 C3 F3 D3 | G3 E3 C3 D3 | B,3 C3 F3 E3 | %100
 F3 E3 F3 E3 | D3 G,3 C3 z z2 | =B,CB, z3 A,B,A, z3 | G,3 E,3 F,3 G,3 | C,3 z3 C,3 z3 | C,12 :: %106
 C3 =B,3 CG,C _B,A,G, | A,3 C3 FCF EDC | D3 A,3 B,3 G,3 | C3 E3 D2 C B,2 A, | %110
 G,2 C D2 D, G,2 F, =E,2 D, | A,2 G, F,2 E, D2 C =B,2 A, | E3 ^G,3 A,2 =B, CB,A, | %113
 D3 ^F,3 G,2 F, E,D,C, | F,3 B,3 C2 B, A,2 G, | F,3 E,3 D,3 A,3 | B,3 C3 F3 D3 | G,3 E3 C3 D3 | %118
 B,3 C3 F3 E3 | D3 C3 B,3 A,3 | B,3 C3 FGF EFE | DED CDC B,CB, A,CB, | C2 F, B,,2 C, F,3 z3 | %123
 F,3 z3 F,3 z3 | F,12 :| %125
V:3
 [A,CF]4 [B,DG]2 [Gc]2 | c3 c defd | ec f2 dc B2 | AA/B/ cA c2- cB | [Gc]2 c2- cd-de- | %5
 ef- f2 e2 z d/c/ | c2 z f fe d2 | c2- [Gc][Acf-] [=Bf][ce]/[Ad]/ [EG][DGB] | %8
 [EGc]2 [EG=B]2 [^FA]>G [CEG][A,F] | GB/c/ d2 fe d2 | [EA^c]2 [DAc]2 [DG=B]2 [CG_B]2 | %11
 [CA][cf-] [Bf][dg] [Ge][Ac] [Af]2 | [Af] z f2 e2 ec | [FA][Gd] [EGc]2 ABcd | %14
 e2 [Bd]2 [cf]2 z [Ad] | d2 c2 F4 |][M:3/8] [Acf]2 z | [ca][cf][ce] | [Acf]2 z | [ca][Af][Be] | %20
 [cf]2 [Gd] | [Ge]2 [cf] | d2 B | edc | fed | f2 f | [dg][cf][Be] | [Bf] [GB]A | f e2 | %29
 [Acf]/a/g/f/e/d/ | (c/f/e/)d/c/B/ | Acg | !arpeggio![Ge][Gc][Ae] | f2 d | edc | [G=B]2 g | gfe | %37
 d=Bd | [=Bg]=bg | [=Bd]3- | [Bd]a/g/f/e/ | [Gd][=Bf][ce] | d c=B | c/e/d/e/c/e/ | G/c/E/G/F/E/ :: %45
 [EGc]2 z | cGE | [Ec]2 z | A^FA | BAG | d3 | BAG | [D^F]GA | BAG | ^F z z | gf_e | dcB | gf_e | %58
 dcB | =edc | [DGB]2 z | [G^ce]2 z | [^CEA]2 z | [^CEA]2 [DFA] | AGF | e^cd | [Bd] ^c2 | %67
 [DFAd]2 [F=B] | [E^G=B]2 [Ec] | [FA=B] [^GB]2 | [EAc]2 [EAc] | [Ac]2 [Ac] | [DGB]2 [DGB] | %73
 [GB]2 [GB] | [CFA][FB][DG] | [CE] z c | cBA | GEG | [Ec]ec | [CEG]3 | [CEG]d/c/B/A/ | G c2 | %82
 dcB |1 A/a/g/a/f/a/ | c/a/A/c/B/A/ :|2 [CFA]3 |][M:2/2] ^f8 | [=Be]8 | [F=Bd]4 [EAc]4 | [GB]8 | %90
 [D^FA]8 | [GB]8 | [_EGB]6 [F=Bd]2 | d3 ^c [Fd]4 | [Ge]4 [Gd]4 | [A^c]8 |][M:12/8] c6 d3 c3 | %97
 g3 e3 f6 | g6 e3 f3 | g3 e3 f3 g3 | a3 g3 a3 g3 | f6 e3 z z2 | ded z3 cdc z3 | g6 a3 g3 | %104
 [Gce]3 z3 [EGc]3 z3 | cGc ece geg c'ge :: [EGc]3 [Gd]3 [Gce]3 [ceg]3 | [cf]3 [ceg]3 [cfa]3 [cg]3 | %108
 [Bfb]3 [cf]3 [df]Bd [Bdg]3 | a3- a2 g [A=e]3 g2 f | g2 _e d2 c B2 A ^c2 d | %111
 [=E^c]2 [B=e] [Ad]2 [Gc] [Fd]2 [FAd] [^Gd]2 [FAd] | [^G=Bd]3 [GBe]3 c2 d edc | %113
 [Ac^f]3 [DAc]3 [DG=B]2 [DGB] [GB]2 [GB] | [CFA]3 [Gd]3 c2 d [Fc]2 [EB] | c6 d3 c3 | g3 e3 ^f6 | %117
 g6 e3 f3 | g3 [ce]3 [cf]3 g3 | f3 e3 d3 c3 | [Fd]3 [Gc]3 ABA GAG | fgf efe ded c2 [dg] | %122
 [Gce]2 [Af] [dg]2 [Ge] [Acf]3 z3 | [Acf]3 z3 [Acf]3 z3 | faf cfc AcA F3 :| %125
V:4
 x6 GE | GF/E/FA F2 B2 | G2 cA F2- FE | z F F2 G2 F2 | EE/F/ GE A2 =B2 | c2 d=B [Gc]2 x G | %6
 F2 x A =B[Gc] cB | [EA]=B/A/ x6 | x4 D2 x2 | [B,D]2 GB A2 AG | x8 | x8 | x2 d>c Bc/d/ G2 | %13
 x4 F2 F2 | A2 FG F2 z F | [FB]G- [EG]2 x4 |][M:3/8] x3 | x3 | x3 | x3 | x3 | x3 | F2 G | G2 A | %24
 A2 B | cBA | x3 | x c2 | dcG | x3 | x3 | F2 d | x3 | A=BG | G2 E | x3 | x3 | x3 | x3 | x3 | x3 | %41
 x3 | A G2 | E x2 | x3 :: x3 | x3 | x3 | D3 | D2 =E | ^FAF | D2 x | D2 x | D2 x | [D^F] x2 | x3 | %56
 x3 | x3 | x3 | A [^FA]2 | x3 | x3 | x3 | x3 | x3 | A2 [FA] | FEA | x3 | x3 | x3 | x3 | D^FD | x3 | %73
 CEC | x3 | x3 | x3 | x3 | x3 | x3 | x3 | CEA | [FB] [EG]2 |1 x3 | x3 :|2 x3 |][M:2/2] [Ac]8 | %87
 ^G8 | x8 | E8 | x8 | D8 | x8 | [EA]4 A2 _B2- | B2 A2 x4 | x8 |][M:12/8] A3 G3 [FA]3 F3 | %97
 d3 G3 A6 | B6 A3 A3 | x3 G3 A3 c2 x | c6 c6 | A3 =B3 G3 x3 | x12 | =B3 c3 c3 c2 B | x12 | %105
 E2 x10 :: x12 | x12 | x12 | e3 c3 x3 [Bd]2 c | B2 A [^FA]2 [FA] G3 G2 x | x12 | x6 [EA]3 A3 | %113
 x9 CDE | x6 [EG]3 x3 | A3 G3 [FA]3 F3 | d3 G3 A6 | B6 A3 A3 | d3 G3 A3 c3 | A6 F6 | x3 F2 E x6 | %121
 x12 | x12 | x12 | x12 :| %125
V:5
 F,4- F,E,/D,/ E,C, | A,3 F, B,CDB, | CB,A,F, B,A,G,C | FF,/G,/ A,F, E,2 D,2 | %4
 C,C,/D,/ E,C, F,DG,E | A,F=B,G C2 z B, | A,2 z D G,CGG, | A,G,/F,/ E,F, G,A,/F,/ G,G,, | %8
 C,2 ^C,2 =C,B,,C,D, | G,G,/A,/ B,G, DC B,2 | A,2 ^F,>F, G,2 E,>E, | =F,A,DB, CA, D2 | %12
 C z B,>A, G,A,/B,/ C,E, | F,B,CC, F,G,A,B, | C2 B,2 A,2 z D | B,=B,CC, F,4 |][M:3/8] F,2 z | %17
 FA,C | F,2 z | FF,G, | A,2 B, | CB,A, | B,A,G, | CB,A, | DCB, | A,G,F, | B,A,G, | DEF | B,CC, | %29
 F,/F/E/D/C/B,/ | A,/D/C/B,/A,/G,/ | F,A,B, | CEC | DG,=B, | C=B,A, | G,z/G/F/G/ | E/G/D/G/C/G/ | %37
 =B,/G/D/G/B,/G/ | G,/G/D/G/=B,/D/ | G3- | GF/E/D/C/ | =B,G,A, | F,G,G,, | C,/C/=B,/C/G,/C/ | %44
 E,/G,/C,/E,/D,/C,/ :: C2 z | CG,E, | C,2 z | ^F,D,F, | G,=F,_E, | D,^F,D, | G,=F,_E, | D,=E,^F, | %53
 G,=F,_E, | D, z/ G/^F/G/ | _E/G/D/G/C/G/ | B,/G/A,/G/G,/G/ | _E/G/D/G/C/G/ | B,/G/A,/G/G, | CDD, | %60
 G,2 z | G,2 z | G,2 z | G,/B,/A,/G,/F,/E,/ | F,/A,/E,/A,/D,/A,/ | ^C,A,D | G,A,A,, | D,2 D | %68
 D^G,A, | DEE, | A,2 G, | ^F,D,F, | G,2 =F, | E,C,E, | F,D,B,, | C, z/ C/B,/C/ | A,/C/G,/C/F,/C/ | %77
 E,/C/G,/C/E,/C/ | C,/C/G,/C/E,/G,/ | C,3 | C,B,/A,/G,/F,/ | E,C,F, | B,CC, |1 F,/F/E/F/C/F/ | %84
 A,/F/F,/A,/G,/F,/ :|2 F,3 |][M:2/2] ^D,8 | =D,8 | ^G,4 A,4 | ^C,8 | =C,8 | B,,8 | G,6 ^G,2 | %93
 A,4 D,4 | C,4 B,,4 | A,,8 |][M:12/8] F3 E3 D3 A,3 | B,3 C3 F3 D3 | G3 E3 C3 D3 | B,3 C3 F3 E3 | %100
 F3 E3 F3 E3 | D3 G,3 C3 z z2 | =B,CB, z3 A,B,A, z3 | G,3 E,3 F,3 G,3 | C,3 z3 C,3 z3 | C,12 :: %106
 C3 =B,3 CG,C _B,A,G, | A,3 C3 FCF EDC | D3 A,3 B,3 G,3 | C3 E3 D2 C B,2 A, | %110
 G,2 C D2 D, G,2 F, =E,2 D, | A,2 G, F,2 E, D2 C =B,2 A, | E3 ^G,3 A,2 =B, CB,A, | %113
 D3 ^F,3 G,2 F, E,D,C, | F,3 B,3 C2 B, A,2 G, | F,3 E,3 D,3 A,3 | B,3 C3 F3 D3 | G,3 E3 C3 D3 | %118
 B,3 C3 F3 E3 | D3 C3 B,3 A,3 | B,3 C3 FGF EFE | DED CDC B,CB, A,CB, | C2 F, B,,2 C, F,3 z3 | %123
 F,3 z3 F,3 z3 | F,12 :| %125
V:6
 x8 | x8 | x8 | x8 | x8 | x8 | x3 d/c/ x4 | x8 | x8 | x8 | x8 | x8 | x8 | x8 | x8 | x8 |] %16
[M:3/8] x3 | x3 | x3 | x3 | x3 | x3 | x3 | x3 | x3 | x3 | x3 | x3 | x3 | x3 | x3 | x3 | x3 | x3 | %34
 x3 | x3 | x3 | x3 | x3 | x3 | x3 | x3 | x3 | x3 | x3 :: x3 | x3 | x3 | x3 | x3 | x3 | x3 | x3 | %53
 x3 | x3 | x3 | x3 | x3 | x3 | x3 | x3 | x3 | x3 | x3 | x3 | x3 | x3 | x3 | x3 | x3 | x3 | x3 | %72
 x3 | x3 | x3 | x3 | x3 | x3 | x3 | x3 | x3 | x3 | x3 |1 x3 | x3 :|2 x3 |][M:2/2] x8 | x8 | x8 | %89
 x8 | x8 | x8 | x8 | x8 | x8 | x8 |][M:12/8] x12 | x12 | x12 | x12 | x12 | x12 | x12 | x12 | x12 | %105
 x12 :: x12 | x12 | x12 | x12 | x12 | x12 | x12 | x12 | x12 | x12 | x12 | x12 | x12 | x12 | x12 | %121
 x12 | x12 | x12 | x12 :| %125
V:7
 x8 | x8 | x8 | x8 | x8 | x8 | x8 | x8 | x8 | x8 | x8 | x8 | x8 | x8 | x8 | x8 |][M:3/8] x3 | x3 | %18
 x3 | x3 | x3 | x3 | x3 | x3 | x3 | x3 | x3 | x3 | x3 | x3 | x3 | x3 | x3 | x3 | x3 | x3 | x3 | %37
 x3 | x3 | x3 | x3 | x3 | x ED | x3 | x3 :: x3 | x3 | x3 | x3 | x3 | x3 | x3 | x3 | x3 | x3 | x3 | %56
 x3 | x3 | x3 | x3 | x3 | x3 | x3 | x3 | x3 | x3 | x3 | x3 | x3 | x3 | x3 | x3 | x3 | x3 | x3 | %75
 x3 | x3 | x3 | x3 | x3 | x3 | x3 | x3 |1 x3 | x3 :|2 x3 |][M:2/2] x8 | x8 | x8 | x8 | x8 | x8 | %92
 x8 | x8 | x8 | x8 |][M:12/8] x12 | x12 | x12 | x12 | x12 | x12 | x12 | x12 | x12 | x12 :: x12 | %107
 x12 | x12 | x12 | x11 =F | x12 | x12 | x12 | x12 | x12 | x12 | x12 | x12 | x12 | x12 | x12 | x12 | %123
 x12 | x12 :| %125

